X: 33301
T: Put The Kettle On
R: reel
M: 4/4
K: Dmajor
DB,|:A,B, DE D3 E|FD AD BA FA|A,B, DE D3 E|(3FEF AF GE CE|
A,B, DE D3 E|(3FEF AD BA FA|d2 (3edA BA FB|AF EF D4:|
|:d2 dA BA FA|Be ed eg fe|aA gA fd ec|(3edc de fd ec|
d2 (3edA BA FA|(3FEF ^AF c2 ec|d2 (3edA BA FB|AF EF D4:|

